X:1
T: The Funny Tailor
P:This is a 15 bar set dance
R:Jig
Q:180
K:G
M:6/8
L:1/16
BA|G2E2D2 G2A2B2|G2B2A2 G4G2|G4A2 B2c2d2|e2f2g2 f2e2d2|
e4B2 e4A2|B2c2d2 e2f2g2|f2e2d2 g4B2|d2B2A2 G2E2D2|
G2A2B2 G2B2A2|G4G2 G4A2|B2c2d2 e2f2g2|f2e2d2 g4B2|
d2B2A2 G2E2D2|G2A2B2 G2B2A2|G4G2 G4||
